src/images/icons/loupe-icon.svg

<svg fill="none" height="17" viewBox="0 0 17 17" width="17" xmlns="http://www.w3.org/2000/svg" xmlns:xlink="http://www.w3.org/1999/xlink"><clipPath id="a"><path d="m0 0h17v17h-17z"/></clipPath><g clip-path="url(#a)" fill="#00458e"><path d="m7.48644 0c-4.12791 0-7.48644 3.35853-7.48644 7.48644 0 4.12816 3.35853 7.48646 7.48644 7.48646 4.12816 0 7.48646-3.3583 7.48646-7.48646 0-4.12791-3.3583-7.48644-7.48646-7.48644zm0 13.5908c-3.3659 0-6.10433-2.7384-6.10433-6.10432 0-3.36591 2.73843-6.10437 6.10433-6.10437 3.36586 0 6.10436 2.73843 6.10436 6.10433 0 3.36586-2.7385 6.10436-6.10436 6.10436z"/><path d="m16.7975 15.8204-3.9621-3.9621c-.27-.27-.7072-.27-.9772 0-.2699.2697-.2699.7074 0 .9772l3.9621 3.962c.135.135.3117.2025.4886.2025.1767 0 .3536-.0675.4886-.2025.27-.2697.27-.7074 0-.9771z"/></g></svg>

<svg width="17" height="17" viewBox="0 0 17 17" fill="none" xmlns="http://www.w3.org/2000/svg">
<g clip-path="url(#clip0)">
<path d="M7.48644 0C3.35853 0 0 3.35853 0 7.48644C0 11.6146 3.35853 14.9729 7.48644 14.9729C11.6146 14.9729 14.9729 11.6146 14.9729 7.48644C14.9729 3.35853 11.6146 0 7.48644 0ZM7.48644 13.5908C4.12054 13.5908 1.38211 10.8524 1.38211 7.48648C1.38211 4.12057 4.12054 1.38211 7.48644 1.38211C10.8523 1.38211 13.5908 4.12054 13.5908 7.48644C13.5908 10.8523 10.8523 13.5908 7.48644 13.5908Z" fill="#00458E"/>
<path d="M16.7975 15.8204L12.8354 11.8583C12.5654 11.5883 12.1282 11.5883 11.8582 11.8583C11.5883 12.128 11.5883 12.5657 11.8582 12.8355L15.8203 16.7975C15.9553 16.9325 16.132 17 16.3089 17C16.4856 17 16.6625 16.9325 16.7975 16.7975C17.0675 16.5278 17.0675 16.0901 16.7975 15.8204Z" fill="#00458E"/>
</g>
<defs>
<clipPath id="clip0">
<rect width="17" height="17" fill="white"/>
</clipPath>
</defs>
</svg>
